images/onlineMarketing-light.svg

<?xml version="1.0" encoding="UTF-8" standalone="no"?>
<!DOCTYPE svg PUBLIC "-//W3C//DTD SVG 1.1//EN" "http://www.w3.org/Graphics/SVG/1.1/DTD/svg11.dtd">
<svg width="100%" height="100%" viewBox="0 0 49 42" version="1.1" xmlns="http://www.w3.org/2000/svg" xmlns:xlink="http://www.w3.org/1999/xlink" xml:space="preserve" xmlns:serif="http://www.serif.com/" style="fill-rule:evenodd;clip-rule:evenodd;stroke-miterlimit:10;">
    <rect x="-1.52" y="-1.18" width="53.319" height="46.839" style="fill:none;"/>
    <clipPath id="_clip1">
        <rect x="-1.52" y="-1.18" width="53.319" height="46.839"/>
    </clipPath>
    <g clip-path="url(#_clip1)">
        <g id="Layer_1-2">
            <path d="M40.63,0.25C37.187,0.366 34.187,2.693 33.22,6L19.55,6L19.55,3.6C19.573,2.848 18.981,2.208 18.23,2.17L1.57,2.17C0.817,2.202 0.222,2.846 0.25,3.6L0.25,17C0.222,17.755 0.815,18.402 1.57,18.44L7.27,18.44L7.27,30.44C7.219,31.697 8.204,32.776 9.46,32.84L22.18,32.84L22.18,37.64L20,37.64C19.249,37.683 18.662,38.328 18.69,39.08L18.69,41.4L32.69,41.4L32.69,39.1C32.718,38.348 32.131,37.703 31.38,37.66L29.18,37.66L29.18,32.86L41.91,32.86C43.166,32.796 44.151,31.717 44.1,30.46L44.1,16.54C46.857,14.971 48.544,12.012 48.49,8.84C48.49,4.1 45,0.25 40.63,0.25ZM40.63,1.25C44.49,1.25 47.63,4.66 47.63,8.88C47.63,13.1 44.51,16.52 40.63,16.52C40.156,16.517 39.683,16.464 39.22,16.36C38.769,16.259 38.33,16.111 37.91,15.92L37.8,15.86L33.72,16.44L34.25,11.97L34.25,11.85C34.067,11.388 33.929,10.909 33.84,10.42C33.747,9.912 33.701,9.396 33.7,8.88C33.7,4.66 36.82,1.25 40.7,1.25L40.63,1.25ZM1.57,3.12L18.23,3.12C18.473,3.125 18.671,3.326 18.671,3.57C18.671,3.58 18.671,3.59 18.67,3.6L18.67,17C18.671,17.01 18.671,17.02 18.671,17.03C18.671,17.274 18.473,17.475 18.23,17.48L14.23,17.48L14.23,19L12.17,17.49L1.57,17.49C1.326,17.486 1.128,17.284 1.128,17.04C1.128,17.027 1.129,17.013 1.13,17L1.13,3.6C1.129,3.59 1.129,3.58 1.129,3.57C1.129,3.326 1.327,3.125 1.57,3.12ZM4.2,5C4.081,4.999 3.962,5.019 3.85,5.06L3.68,5.12L3.62,5.12C3.498,5.19 3.386,5.277 3.29,5.38C3.222,5.45 3.161,5.527 3.11,5.61C3.061,5.708 3.024,5.813 3,5.92C2.975,5.982 2.955,6.045 2.94,6.11C2.925,6.175 2.94,6.11 2.94,6.19C2.93,6.286 2.93,6.384 2.94,6.48L2.94,14.16C2.916,14.891 3.472,15.522 4.2,15.59L15.6,15.59C16.35,15.552 16.938,14.91 16.91,14.16L16.91,6.48C16.912,6.449 16.913,6.419 16.913,6.388C16.913,5.654 16.332,5.041 15.6,5L4.2,5ZM4.2,6L15.6,6C15.843,6.005 16.041,6.206 16.041,6.45C16.041,6.46 16.041,6.47 16.04,6.48L16.04,7.12L9.9,9.8L3.76,7.12L3.76,6.48C3.76,6.473 3.76,6.466 3.76,6.46C3.76,6.215 3.955,6.01 4.2,6ZM19.55,7L33,7C32.93,7 32.93,7 32.8,6.88L19.55,6.88L19.55,7ZM3.76,8.15L9.9,10.84L16,8.15L16,14.15C16.001,14.16 16.001,14.17 16.001,14.18C16.001,14.424 15.803,14.625 15.56,14.63L4.2,14.63C3.957,14.625 3.759,14.424 3.759,14.18C3.759,14.17 3.759,14.16 3.76,14.15L3.76,8.15ZM19.55,7.84L32.83,7.84C32.83,8.09 32.69,9.128 32.93,10.57C33.012,11.061 33.17,11.536 33.35,12L32.7,17.47L37.7,16.77C38.13,16.966 38.574,17.141 39.04,17.22C40.63,17.49 42.648,17.49 42.91,17.23L42.91,27.06L8.46,27.06L8.46,18.47L12,18.47L15.2,20.81L15.2,18.47L18.27,18.47C19.021,18.412 19.596,17.752 19.55,17L19.55,7.84ZM43.23,16.94L43.23,28.06L8.14,28.06L8.14,18.47L7.59,18.47L7.59,28.06L43.79,28.06L43.79,17.22C43.703,17 43.79,16.94 43.23,16.94ZM8.14,29L43.23,29L43.23,30.44C43.231,30.464 43.232,30.487 43.232,30.511C43.232,31.244 42.643,31.854 41.91,31.88L9.46,31.88C8.727,31.854 8.138,31.244 8.138,30.511C8.138,30.487 8.139,30.464 8.14,30.44L8.14,29ZM23.05,32.84L28.32,32.84L28.32,37.64L23.05,37.64L23.05,32.84ZM20,38.62L31.39,38.62C31.628,38.624 31.822,38.822 31.822,39.06C31.822,39.073 31.821,39.087 31.82,39.1L31.82,40.46L19.55,40.46L19.55,39.1C19.549,39.087 19.548,39.073 19.548,39.06C19.548,38.818 19.747,38.62 19.988,38.62C19.992,38.62 19.996,38.62 20,38.62Z" style="fill:white;fill-rule:nonzero;stroke:white;stroke-width:0.5px;"/>
            <path d="M41.65,9.84L39.86,9.84L40.34,7.92L42.13,7.92L41.65,9.84ZM44.82,7.92L45.18,6.47L43.83,6.47L44.19,5L42.85,5L42.49,6.44L40.7,6.44L41.06,5L39.71,5L39.35,6.44L38,6.44L37.64,7.89L39,7.89L38.52,9.81L37.17,9.81L36.81,11.26L38.15,11.26L37.79,12.7L39.14,12.7L39.5,11.26L41.29,11.26L40.93,12.7L42.27,12.7L42.63,11.26L44,11.26L44.36,9.81L43,9.81L43.48,7.89L44.82,7.92Z" style="fill:white;fill-rule:nonzero;"/>
        </g>
    </g>
    <g id="Layer_2">
    </g>
</svg>

<svg xmlns="http://www.w3.org/2000/svg" viewBox="0 0 48.74 41.67"><defs><style>.cls-1,.cls-2{fill:#fff;}.cls-1{stroke:#fff;stroke-miterlimit:10;stroke-width:0.5px;}</style></defs><title>onlineMarketing-light</title><g id="Layer_2" data-name="Layer 2"><g id="Layer_1-2" data-name="Layer 1"><path class="cls-1" d="M40.63.25A8,8,0,0,0,33.22,6H19.55V3.6a1.39,1.39,0,0,0-1.32-1.43H1.57A1.38,1.38,0,0,0,.25,3.6V17a1.39,1.39,0,0,0,1.32,1.44h5.7v12a2.31,2.31,0,0,0,2.19,2.4H22.18v4.8H20a1.39,1.39,0,0,0-1.31,1.44v2.32h14V39.1a1.39,1.39,0,0,0-1.31-1.44h-2.2v-4.8H41.91a2.31,2.31,0,0,0,2.19-2.4V16.54a8.69,8.69,0,0,0,4.39-7.7C48.49,4.1,45,.25,40.63.25Zm0,1h0c3.86,0,7,3.41,7,7.63s-3.12,7.64-7,7.64a6.62,6.62,0,0,1-1.41-.16,6.73,6.73,0,0,1-1.31-.44l-.11-.06-4.08.58.53-4.47,0-.12a7.58,7.58,0,0,1-.41-1.43,8.65,8.65,0,0,1-.14-1.54c0-4.22,3.12-7.63,7-7.63ZM1.57,3.12H18.23a.45.45,0,0,1,.44.48V17a.45.45,0,0,1-.44.48h-4V19l-2.06-1.51H1.57A.45.45,0,0,1,1.13,17V3.6A.45.45,0,0,1,1.57,3.12ZM4.2,5a1,1,0,0,0-.35.06l-.17.06-.06,0a1.4,1.4,0,0,0-.33.26,1.3,1.3,0,0,0-.18.23h0A1.34,1.34,0,0,0,3,5.92a1.39,1.39,0,0,0-.06.19s0,0,0,.08h0a1.43,1.43,0,0,0,0,.29v7.68A1.39,1.39,0,0,0,4.2,15.59H15.6a1.38,1.38,0,0,0,1.31-1.43V6.48A1.39,1.39,0,0,0,15.6,5Zm0,1H15.6a.45.45,0,0,1,.44.48v.64L9.9,9.8,3.76,7.12V6.48A.46.46,0,0,1,4.2,6ZM19.55,7H33a9,9,0,0,0-.2,1.88v0H19.55V7ZM3.76,8.15,9.9,10.84,16,8.15v6a.45.45,0,0,1-.44.48H4.2a.45.45,0,0,1-.44-.48ZM19.55,9.84H32.83c0,.25.06.49.1.73A8.88,8.88,0,0,0,33.35,12l-.65,5.47,5-.7a6.81,6.81,0,0,0,1.34.45,7.22,7.22,0,0,0,1.55.17v7.76H10.77V18.47H12l3.2,2.34V18.47h3.07A1.39,1.39,0,0,0,19.55,17V9.84Zm23.68,7.1V28.06H8.14V18.47H9.9v7.68H41.47V17.38a7,7,0,0,0,1.76-.44ZM8.14,29H43.23v1.44a1.37,1.37,0,0,1-1.32,1.44H9.46a1.37,1.37,0,0,1-1.32-1.44V29Zm14.91,3.84h5.27v4.8H23.05ZM20,38.62H31.39a.44.44,0,0,1,.43.48v1.36H19.55V39.1A.44.44,0,0,1,20,38.62Z"/><path class="cls-2" d="M41.65,9.84H39.86l.48-1.92h1.79Zm3.17-1.92.36-1.45H43.83L44.19,5H42.85l-.36,1.44H40.7L41.06,5H39.71l-.36,1.44H38l-.36,1.45H39l-.48,1.92H37.17l-.36,1.45h1.34l-.36,1.44h1.35l.36-1.44h1.79l-.36,1.44h1.34l.36-1.44H44l.36-1.45H43l.48-1.92Z"/></g></g></svg>
